X:1
T: St. Andrews Day
C:Bruce Shawyer
R:Jig
I:speed 180
K:G
M:6/8
L:1/16
D2|G6 G4B2|d2B2G2 d2B2G2|A2B2c2 B2A2G2|F2G2A2 D2E2F2|G6 G4B2|d2B2G2 d2B2G2|A2B2c2 A2G2F2|G6 G4D2|
G6 G4B2|d2B2G2 d2B2G2|A2B2c2 B2A2G2|F2G2A2 D2E2F2|G6 G4B2|d2B2G2 d2B2G2|A2B2c2 A2G2F2|G6 G4d2|
g6 g4e2|g2d2B2 G2A2B2|c2d2e2 d2c2B2|A2B2G2 F2E2D2|g6 g4e2|g2d2B2 G2A2B2|c2B2A2 D2E2F2|G6 G4d2|
g6 g4e2|g2d2B2 G2A2B2|c2d2e2 d2c2B2|A2B2G2 F2E2D2|G6 G4B2|d2B2G2 d2B2G2|A2B2c2 A2G2F2|G6 G4||
